images/footer-page/twitter.svg

<svg width="24" height="24" viewBox="0 0 24 24" fill="none" xmlns="http://www.w3.org/2000/svg">
<g clip-path="url(#clip0_131_1690)">
<path d="M24 4.5585C23.1075 4.95 22.1565 5.2095 21.165 5.3355C22.185 4.7265 22.9635 3.7695 23.3295 2.616C22.3785 3.183 21.3285 3.5835 20.2095 3.807C19.3065 2.8455 18.0195 2.25 16.6155 2.25C13.8915 2.25 11.6985 4.461 11.6985 7.1715C11.6985 7.5615 11.7315 7.9365 11.8125 8.2935C7.722 8.094 4.1025 6.1335 1.671 3.147C1.2465 3.8835 0.9975 4.7265 0.9975 5.634C0.9975 7.338 1.875 8.8485 3.183 9.723C2.3925 9.708 1.617 9.4785 0.96 9.117C0.96 9.132 0.96 9.1515 0.96 9.171C0.96 11.562 2.6655 13.548 4.902 14.0055C4.5015 14.115 4.065 14.1675 3.612 14.1675C3.297 14.1675 2.979 14.1495 2.6805 14.0835C3.318 16.032 5.127 17.4645 7.278 17.511C5.604 18.8205 3.4785 19.6095 1.1775 19.6095C0.774 19.6095 0.387 19.5915 0 19.542C2.1795 20.9475 4.7625 21.75 7.548 21.75C16.602 21.75 21.552 14.25 21.552 7.749C21.552 7.5315 21.5445 7.3215 21.534 7.113C22.5105 6.42 23.331 5.5545 24 4.5585Z" fill="white"/>
</g>
<defs>
<clipPath id="clip0_131_1690">
<rect width="24" height="24" fill="white"/>
</clipPath>
</defs>
</svg>

<svg xmlns="http://www.w3.org/2000/svg" width="24" height="24" fill="none"><g clip-path="url(#a)"><path fill="#fff" d="M24 4.559c-.892.391-1.843.65-2.835.776a4.893 4.893 0 0 0 2.165-2.719 9.833 9.833 0 0 1-3.12 1.191 4.919 4.919 0 0 0-8.511 3.365c0 .39.033.764.114 1.121-4.091-.199-7.71-2.16-10.142-5.146a4.954 4.954 0 0 0-.673 2.487c0 1.704.877 3.214 2.185 4.089A4.859 4.859 0 0 1 .96 9.117v.054a4.943 4.943 0 0 0 3.942 4.835c-.4.109-.837.162-1.29.162a4.35 4.35 0 0 1-.932-.084c.638 1.948 2.447 3.38 4.598 3.427a9.886 9.886 0 0 1-6.1 2.099c-.404 0-.791-.018-1.178-.068a13.852 13.852 0 0 0 7.548 2.208c9.054 0 14.004-7.5 14.004-14.001 0-.217-.008-.427-.018-.636A9.816 9.816 0 0 0 24 4.559Z"/></g><defs><clipPath id="a"><path fill="#fff" d="M0 0h24v24H0z"/></clipPath></defs></svg>
